X: 39304
T: Taking It On
R: reel
M: 4/4
K: Aminor
|:E3D ECA,C|DE (3EEE D4|E3E EDCE|F3F- F2FE|
[1 E3D ECA,C|DE (3EEE D3A,|CFB,D GCFA|DFcB GDB,C:|
[2 E3D ECA,C|DE (3EEE DB,G,A,|CFB,D GCFA|DFcB GEDE||
|:FABc- cDEG|ABc2 EFAc-|cEFA ced2|dBGc AGEF|
ABc2 EGBc-|cDEG ADFG|cd2F GcdD|1 FGcd d2DE:|2 FGcd dAcf||
|:AAcf ABdg|ABdg Acdg|Acdg Acdg|Acdg AAcf|
AAcf ABdg|ABdg Acdb|1 Acdb Acdb|Acdb AAcf:|2 Acdb Acdf|fedc EDCD||

